package/converter/svg/regular/circle-n.svg

<svg xmlns="http://www.w3.org/2000/svg" viewBox="0 0 512 512"><!-- Font Awesome Pro 6.0.0-alpha2 by @fontawesome - https://fontawesome.com License - https://fontawesome.com/license (Commercial License) --><path d="M328 128C314.75 128 304 138.75 304 152V283.172L203.734 138.344C197.781 129.703 186.859 126.031 176.844 129.094C166.828 132.219 160 141.5 160 152V360C160 373.25 170.75 384 184 384S208 373.25 208 360V228.828L308.266 373.656C312.828 380.266 320.281 384 328 384C330.391 384 332.797 383.641 335.156 382.906C345.172 379.781 352 370.5 352 360V152C352 138.75 341.25 128 328 128ZM256 16C123.451 16 16 123.451 16 256S123.451 496 256 496S496 388.549 496 256S388.549 16 256 16ZM256 448C150.131 448 64 361.869 64 256S150.131 64 256 64S448 150.131 448 256S361.869 448 256 448Z"/></svg>

<svg xmlns="http://www.w3.org/2000/svg" viewBox="0 0 512 512"><!--! Font Awesome Pro 6.6.0 by @fontawesome - https://fontawesome.com License - https://fontawesome.com/license (Commercial License) Copyright 2024 Fonticons, Inc. --><path d="M256 48a208 208 0 1 1 0 416 208 208 0 1 1 0-416zm0 464A256 256 0 1 0 256 0a256 256 0 1 0 0 512zM203.7 138.3c-6-8.6-16.9-12.4-26.9-9.2s-16.8 12.4-16.8 22.9l0 208c0 13.3 10.7 24 24 24s24-10.7 24-24l0-131.2L308.3 373.7c6 8.6 16.9 12.4 26.9 9.2s16.8-12.4 16.8-22.9l0-208c0-13.3-10.7-24-24-24s-24 10.7-24 24l0 131.2L203.7 138.3z"/></svg>
